(Generated by PartKam Version 0.05)

G20 G90 G40

(Path A)
G0 Z0.125
T0 M6
G17
M3
G0 X12.0131 Y0.0595
G1 Z-0.2 F30
G1 X12.0131 Y-0.1905 F20
G2 X11.997 Y-0.3612 I-0.9114 J0
G2 X11.9516 Y-0.5129 I-0.7629 J0.1455
G2 X11.8764 Y-0.6523 I-0.7176 J0.2972
G2 X11.7671 Y-0.7844 I-0.7538 J0.5123
G2 X11.6349 Y-0.8938 I-0.6444 J0.6444
G2 X11.4956 Y-0.969 I-0.4366 J0.6424
G2 X11.3439 Y-1.0143 I-0.2972 J0.7176
G2 X11.1731 Y-1.0305 I-0.1708 J0.8952
G2 X11.0024 Y-1.0143 I0 J0.9114
G2 X10.8507 Y-0.969 I0.1455 J0.7629
G2 X10.7113 Y-0.8938 I0.2972 J0.7176
G2 X10.5792 Y-0.7844 I0.5123 J0.7538
G2 X10.4698 Y-0.6523 I0.6444 J0.6444
G2 X10.3946 Y-0.5129 I0.6424 J0.4366
G2 X10.3493 Y-0.3612 I0.7176 J0.2972
G2 X10.3331 Y-0.1905 I0.8952 J0.1708
G1 X10.3331 Y0.3095
G3 X10.3204 Y0.4437 I-0.7161 J0
G3 X10.2848 Y0.5629 I-0.5995 J-0.1143
G3 X10.2257 Y0.6724 I-0.5638 J-0.2335
G3 X10.1398 Y0.7762 I-0.5922 J-0.4025
G3 X10.036 Y0.8621 I-0.5063 J-0.5063
G3 X9.9265 Y0.9212 I-0.343 J-0.5047
G3 X9.8073 Y0.9568 I-0.2335 J-0.5638
G3 X9.6731 Y0.9695 I-0.1342 J-0.7034
G3 X9.539 Y0.9568 I0 J-0.7161
G3 X9.4198 Y0.9212 I0.1143 J-0.5995
G3 X9.3103 Y0.8621 I0.2335 J-0.5638
G3 X9.2064 Y0.7762 I0.4025 J-0.5922
G3 X9.1205 Y0.6724 I0.5063 J-0.5063
G3 X9.0615 Y0.5629 I0.5047 J-0.343
G3 X9.0258 Y0.4437 I0.5638 J-0.2335
G3 X9.0131 Y0.3095 I0.7034 J-0.1342
G1 X9.0131 Y-0.1905
G2 X8.997 Y-0.3612 I-0.9114 J0
G2 X8.9516 Y-0.5129 I-0.7629 J0.1455
G2 X8.8764 Y-0.6523 I-0.7176 J0.2972
G2 X8.7671 Y-0.7844 I-0.7538 J0.5123
G2 X8.6349 Y-0.8938 I-0.6444 J0.6444
G2 X8.4956 Y-0.969 I-0.4366 J0.6424
G2 X8.3439 Y-1.0143 I-0.2972 J0.7176
G2 X8.1731 Y-1.0305 I-0.1708 J0.8952
G2 X8.0024 Y-1.0143 I0 J0.9114
G2 X7.8507 Y-0.969 I0.1455 J0.7629
G2 X7.7113 Y-0.8938 I0.2972 J0.7176
G2 X7.5792 Y-0.7844 I0.5123 J0.7538
G2 X7.4698 Y-0.6523 I0.6444 J0.6444
G2 X7.3946 Y-0.5129 I0.6424 J0.4366
G2 X7.3493 Y-0.3612 I0.7176 J0.2972
G2 X7.3331 Y-0.1905 I0.8952 J0.1708
G1 X7.3331 Y0.3095
G3 X7.3204 Y0.4437 I-0.7161 J0
G3 X7.2848 Y0.5629 I-0.5995 J-0.1143
G3 X7.2257 Y0.6724 I-0.5638 J-0.2335
G3 X7.1398 Y0.7762 I-0.5922 J-0.4025
G3 X7.036 Y0.8621 I-0.5063 J-0.5063
G3 X6.9265 Y0.9212 I-0.343 J-0.5047
G3 X6.8073 Y0.9568 I-0.2335 J-0.5638
G3 X6.6731 Y0.9695 I-0.1342 J-0.7034
G3 X6.539 Y0.9568 I0 J-0.7161
G3 X6.4198 Y0.9212 I0.1143 J-0.5995
G3 X6.3103 Y0.8621 I0.2335 J-0.5638
G3 X6.2064 Y0.7762 I0.4025 J-0.5922
G3 X6.1205 Y0.6724 I0.5063 J-0.5063
G3 X6.0615 Y0.5629 I0.5047 J-0.343
G3 X6.0258 Y0.4437 I0.5638 J-0.2335
G3 X6.0131 Y0.3095 I0.7034 J-0.1342
G1 X6.0131 Y-0.1905
G2 X5.997 Y-0.3612 I-0.9114 J0
G2 X5.9516 Y-0.5129 I-0.7629 J0.1455
G2 X5.8764 Y-0.6523 I-0.7176 J0.2972
G2 X5.7671 Y-0.7844 I-0.7538 J0.5123
G2 X5.6349 Y-0.8938 I-0.6444 J0.6444
G2 X5.4956 Y-0.969 I-0.4366 J0.6424
G2 X5.3439 Y-1.0143 I-0.2972 J0.7176
G2 X5.1731 Y-1.0305 I-0.1708 J0.8952
G2 X5.0024 Y-1.0143 I0 J0.9114
G2 X4.8507 Y-0.969 I0.1455 J0.7629
G2 X4.7113 Y-0.8938 I0.2972 J0.7176
G2 X4.5792 Y-0.7844 I0.5123 J0.7538
G2 X4.4698 Y-0.6523 I0.6444 J0.6444
G2 X4.3946 Y-0.5129 I0.6424 J0.4366
G2 X4.3493 Y-0.3612 I0.7176 J0.2972
G2 X4.3331 Y-0.1905 I0.8952 J0.1708
G1 X4.3331 Y0.3095
G3 X4.3204 Y0.4437 I-0.7161 J0
G3 X4.2848 Y0.5629 I-0.5995 J-0.1143
G3 X4.2257 Y0.6724 I-0.5638 J-0.2335
G3 X4.1398 Y0.7762 I-0.5922 J-0.4025
G3 X4.036 Y0.8621 I-0.5063 J-0.5063
G3 X3.9265 Y0.9212 I-0.343 J-0.5047
G3 X3.8073 Y0.9568 I-0.2335 J-0.5638
G3 X3.6731 Y0.9695 I-0.1342 J-0.7034
G3 X3.539 Y0.9568 I0 J-0.7161
G3 X3.4198 Y0.9212 I0.1143 J-0.5995
G3 X3.3103 Y0.8621 I0.2335 J-0.5638
G3 X3.2064 Y0.7762 I0.4025 J-0.5922
G3 X3.1205 Y0.6724 I0.5063 J-0.5063
G3 X3.0615 Y0.5629 I0.5047 J-0.343
G3 X3.0258 Y0.4437 I0.5638 J-0.2335
G3 X3.0131 Y0.3095 I0.7034 J-0.1342
G1 X3.0131 Y-0.1905
G2 X2.997 Y-0.3612 I-0.9114 J0
G2 X2.9516 Y-0.5129 I-0.7629 J0.1455
G2 X2.8764 Y-0.6523 I-0.7176 J0.2972
G2 X2.7671 Y-0.7844 I-0.7538 J0.5123
G2 X2.6349 Y-0.8938 I-0.6444 J0.6444
G2 X2.4956 Y-0.969 I-0.4366 J0.6424
G2 X2.3439 Y-1.0143 I-0.2972 J0.7176
G2 X2.1731 Y-1.0305 I-0.1708 J0.8952
G2 X2.0024 Y-1.0143 I0 J0.9114
G2 X1.8507 Y-0.969 I0.1455 J0.7629
G2 X1.7113 Y-0.8938 I0.2972 J0.7176
G2 X1.5792 Y-0.7844 I0.5123 J0.7538
G2 X1.4698 Y-0.6523 I0.6444 J0.6444
G2 X1.3946 Y-0.5129 I0.6424 J0.4366
G2 X1.3493 Y-0.3612 I0.7176 J0.2972
G2 X1.3331 Y-0.1905 I0.8952 J0.1708
G1 X1.3331 Y0.3095
G3 X1.3204 Y0.4437 I-0.7161 J0
G3 X1.2848 Y0.5629 I-0.5995 J-0.1143
G3 X1.2257 Y0.6724 I-0.5638 J-0.2335
G3 X1.1398 Y0.7762 I-0.5922 J-0.4025
G3 X1.036 Y0.8621 I-0.5063 J-0.5063
G3 X0.9265 Y0.9212 I-0.343 J-0.5047
G3 X0.8073 Y0.9568 I-0.2335 J-0.5638
G3 X0.6731 Y0.9695 I-0.1342 J-0.7034
G3 X0.539 Y0.9568 I0 J-0.7161
G3 X0.4198 Y0.9212 I0.1143 J-0.5995
G3 X0.3103 Y0.8621 I0.2335 J-0.5638
G3 X0.2064 Y0.7762 I0.4025 J-0.5922
G3 X0.1205 Y0.6724 I0.5063 J-0.5063
G3 X0.0615 Y0.5629 I0.5047 J-0.343
G3 X0.0258 Y0.4437 I0.5638 J-0.2335
G3 X0.0131 Y0.3095 I0.7034 J-0.1342
G1 X0.0131 Y0.0595
G0 Z0.125
G0 X12.0131 Y0.0595
G1 Z-0.4 F30
G1 X12.0131 Y-0.1905 F20
G2 X11.997 Y-0.3612 I-0.9114 J0
G2 X11.9516 Y-0.5129 I-0.7629 J0.1455
G2 X11.8764 Y-0.6523 I-0.7176 J0.2972
G2 X11.7671 Y-0.7844 I-0.7538 J0.5123
G2 X11.6349 Y-0.8938 I-0.6444 J0.6444
G2 X11.4956 Y-0.969 I-0.4366 J0.6424
G2 X11.3439 Y-1.0143 I-0.2972 J0.7176
G2 X11.1731 Y-1.0305 I-0.1708 J0.8952
G2 X11.0024 Y-1.0143 I0 J0.9114
G2 X10.8507 Y-0.969 I0.1455 J0.7629
G2 X10.7113 Y-0.8938 I0.2972 J0.7176
G2 X10.5792 Y-0.7844 I0.5123 J0.7538
G2 X10.4698 Y-0.6523 I0.6444 J0.6444
G2 X10.3946 Y-0.5129 I0.6424 J0.4366
G2 X10.3493 Y-0.3612 I0.7176 J0.2972
G2 X10.3331 Y-0.1905 I0.8952 J0.1708
G1 X10.3331 Y0.3095
G3 X10.3204 Y0.4437 I-0.7161 J0
G3 X10.2848 Y0.5629 I-0.5995 J-0.1143
G3 X10.2257 Y0.6724 I-0.5638 J-0.2335
G3 X10.1398 Y0.7762 I-0.5922 J-0.4025
G3 X10.036 Y0.8621 I-0.5063 J-0.5063
G3 X9.9265 Y0.9212 I-0.343 J-0.5047
G3 X9.8073 Y0.9568 I-0.2335 J-0.5638
G3 X9.6731 Y0.9695 I-0.1342 J-0.7034
G3 X9.539 Y0.9568 I0 J-0.7161
G3 X9.4198 Y0.9212 I0.1143 J-0.5995
G3 X9.3103 Y0.8621 I0.2335 J-0.5638
G3 X9.2064 Y0.7762 I0.4025 J-0.5922
G3 X9.1205 Y0.6724 I0.5063 J-0.5063
G3 X9.0615 Y0.5629 I0.5047 J-0.343
G3 X9.0258 Y0.4437 I0.5638 J-0.2335
G3 X9.0131 Y0.3095 I0.7034 J-0.1342
G1 X9.0131 Y-0.1905
G2 X8.997 Y-0.3612 I-0.9114 J0
G2 X8.9516 Y-0.5129 I-0.7629 J0.1455
G2 X8.8764 Y-0.6523 I-0.7176 J0.2972
G2 X8.7671 Y-0.7844 I-0.7538 J0.5123
G2 X8.6349 Y-0.8938 I-0.6444 J0.6444
G2 X8.4956 Y-0.969 I-0.4366 J0.6424
G2 X8.3439 Y-1.0143 I-0.2972 J0.7176
G2 X8.1731 Y-1.0305 I-0.1708 J0.8952
G2 X8.0024 Y-1.0143 I0 J0.9114
G2 X7.8507 Y-0.969 I0.1455 J0.7629
G2 X7.7113 Y-0.8938 I0.2972 J0.7176
G2 X7.5792 Y-0.7844 I0.5123 J0.7538
G2 X7.4698 Y-0.6523 I0.6444 J0.6444
G2 X7.3946 Y-0.5129 I0.6424 J0.4366
G2 X7.3493 Y-0.3612 I0.7176 J0.2972
G2 X7.3331 Y-0.1905 I0.8952 J0.1708
G1 X7.3331 Y0.3095
G3 X7.3204 Y0.4437 I-0.7161 J0
G3 X7.2848 Y0.5629 I-0.5995 J-0.1143
G3 X7.2257 Y0.6724 I-0.5638 J-0.2335
G3 X7.1398 Y0.7762 I-0.5922 J-0.4025
G3 X7.036 Y0.8621 I-0.5063 J-0.5063
G3 X6.9265 Y0.9212 I-0.343 J-0.5047
G3 X6.8073 Y0.9568 I-0.2335 J-0.5638
G3 X6.6731 Y0.9695 I-0.1342 J-0.7034
G3 X6.539 Y0.9568 I0 J-0.7161
G3 X6.4198 Y0.9212 I0.1143 J-0.5995
G3 X6.3103 Y0.8621 I0.2335 J-0.5638
G3 X6.2064 Y0.7762 I0.4025 J-0.5922
G3 X6.1205 Y0.6724 I0.5063 J-0.5063
G3 X6.0615 Y0.5629 I0.5047 J-0.343
G3 X6.0258 Y0.4437 I0.5638 J-0.2335
G3 X6.0131 Y0.3095 I0.7034 J-0.1342
G1 X6.0131 Y-0.1905
G2 X5.997 Y-0.3612 I-0.9114 J0
G2 X5.9516 Y-0.5129 I-0.7629 J0.1455
G2 X5.8764 Y-0.6523 I-0.7176 J0.2972
G2 X5.7671 Y-0.7844 I-0.7538 J0.5123
G2 X5.6349 Y-0.8938 I-0.6444 J0.6444
G2 X5.4956 Y-0.969 I-0.4366 J0.6424
G2 X5.3439 Y-1.0143 I-0.2972 J0.7176
G2 X5.1731 Y-1.0305 I-0.1708 J0.8952
G2 X5.0024 Y-1.0143 I0 J0.9114
G2 X4.8507 Y-0.969 I0.1455 J0.7629
G2 X4.7113 Y-0.8938 I0.2972 J0.7176
G2 X4.5792 Y-0.7844 I0.5123 J0.7538
G2 X4.4698 Y-0.6523 I0.6444 J0.6444
G2 X4.3946 Y-0.5129 I0.6424 J0.4366
G2 X4.3493 Y-0.3612 I0.7176 J0.2972
G2 X4.3331 Y-0.1905 I0.8952 J0.1708
G1 X4.3331 Y0.3095
G3 X4.3204 Y0.4437 I-0.7161 J0
G3 X4.2848 Y0.5629 I-0.5995 J-0.1143
G3 X4.2257 Y0.6724 I-0.5638 J-0.2335
G3 X4.1398 Y0.7762 I-0.5922 J-0.4025
G3 X4.036 Y0.8621 I-0.5063 J-0.5063
G3 X3.9265 Y0.9212 I-0.343 J-0.5047
G3 X3.8073 Y0.9568 I-0.2335 J-0.5638
G3 X3.6731 Y0.9695 I-0.1342 J-0.7034
G3 X3.539 Y0.9568 I0 J-0.7161
G3 X3.4198 Y0.9212 I0.1143 J-0.5995
G3 X3.3103 Y0.8621 I0.2335 J-0.5638
G3 X3.2064 Y0.7762 I0.4025 J-0.5922
G3 X3.1205 Y0.6724 I0.5063 J-0.5063
G3 X3.0615 Y0.5629 I0.5047 J-0.343
G3 X3.0258 Y0.4437 I0.5638 J-0.2335
G3 X3.0131 Y0.3095 I0.7034 J-0.1342
G1 X3.0131 Y-0.1905
G2 X2.997 Y-0.3612 I-0.9114 J0
G2 X2.9516 Y-0.5129 I-0.7629 J0.1455
G2 X2.8764 Y-0.6523 I-0.7176 J0.2972
G2 X2.7671 Y-0.7844 I-0.7538 J0.5123
G2 X2.6349 Y-0.8938 I-0.6444 J0.6444
G2 X2.4956 Y-0.969 I-0.4366 J0.6424
G2 X2.3439 Y-1.0143 I-0.2972 J0.7176
G2 X2.1731 Y-1.0305 I-0.1708 J0.8952
G2 X2.0024 Y-1.0143 I0 J0.9114
G2 X1.8507 Y-0.969 I0.1455 J0.7629
G2 X1.7113 Y-0.8938 I0.2972 J0.7176
G2 X1.5792 Y-0.7844 I0.5123 J0.7538
G2 X1.4698 Y-0.6523 I0.6444 J0.6444
G2 X1.3946 Y-0.5129 I0.6424 J0.4366
G2 X1.3493 Y-0.3612 I0.7176 J0.2972
G2 X1.3331 Y-0.1905 I0.8952 J0.1708
G1 X1.3331 Y0.3095
G3 X1.3204 Y0.4437 I-0.7161 J0
G3 X1.2848 Y0.5629 I-0.5995 J-0.1143
G3 X1.2257 Y0.6724 I-0.5638 J-0.2335
G3 X1.1398 Y0.7762 I-0.5922 J-0.4025
G3 X1.036 Y0.8621 I-0.5063 J-0.5063
G3 X0.9265 Y0.9212 I-0.343 J-0.5047
G3 X0.8073 Y0.9568 I-0.2335 J-0.5638
G3 X0.6731 Y0.9695 I-0.1342 J-0.7034
G3 X0.539 Y0.9568 I0 J-0.7161
G3 X0.4198 Y0.9212 I0.1143 J-0.5995
G3 X0.3103 Y0.8621 I0.2335 J-0.5638
G3 X0.2064 Y0.7762 I0.4025 J-0.5922
G3 X0.1205 Y0.6724 I0.5063 J-0.5063
G3 X0.0615 Y0.5629 I0.5047 J-0.343
G3 X0.0258 Y0.4437 I0.5638 J-0.2335
G3 X0.0131 Y0.3095 I0.7034 J-0.1342
G1 X0.0131 Y0.0595
G0 Z0.125
G0 X12.0131 Y0.0595
G1 Z-0.6 F30
G1 X12.0131 Y-0.1905 F20
G2 X11.997 Y-0.3612 I-0.9114 J0
G2 X11.9516 Y-0.5129 I-0.7629 J0.1455
G2 X11.8764 Y-0.6523 I-0.7176 J0.2972
G2 X11.7671 Y-0.7844 I-0.7538 J0.5123
G2 X11.6349 Y-0.8938 I-0.6444 J0.6444
G2 X11.4956 Y-0.969 I-0.4366 J0.6424
G2 X11.3439 Y-1.0143 I-0.2972 J0.7176
G2 X11.1731 Y-1.0305 I-0.1708 J0.8952
G2 X11.0024 Y-1.0143 I0 J0.9114
G2 X10.8507 Y-0.969 I0.1455 J0.7629
G2 X10.7113 Y-0.8938 I0.2972 J0.7176
G2 X10.5792 Y-0.7844 I0.5123 J0.7538
G2 X10.4698 Y-0.6523 I0.6444 J0.6444
G2 X10.3946 Y-0.5129 I0.6424 J0.4366
G2 X10.3493 Y-0.3612 I0.7176 J0.2972
G2 X10.3331 Y-0.1905 I0.8952 J0.1708
G1 X10.3331 Y0.3095
G3 X10.3204 Y0.4437 I-0.7161 J0
G3 X10.2848 Y0.5629 I-0.5995 J-0.1143
G3 X10.2257 Y0.6724 I-0.5638 J-0.2335
G3 X10.1398 Y0.7762 I-0.5922 J-0.4025
G3 X10.036 Y0.8621 I-0.5063 J-0.5063
G3 X9.9265 Y0.9212 I-0.343 J-0.5047
G3 X9.8073 Y0.9568 I-0.2335 J-0.5638
G3 X9.6731 Y0.9695 I-0.1342 J-0.7034
G3 X9.539 Y0.9568 I0 J-0.7161
G3 X9.4198 Y0.9212 I0.1143 J-0.5995
G3 X9.3103 Y0.8621 I0.2335 J-0.5638
G3 X9.2064 Y0.7762 I0.4025 J-0.5922
G3 X9.1205 Y0.6724 I0.5063 J-0.5063
G3 X9.0615 Y0.5629 I0.5047 J-0.343
G3 X9.0258 Y0.4437 I0.5638 J-0.2335
G3 X9.0131 Y0.3095 I0.7034 J-0.1342
G1 X9.0131 Y-0.1905
G2 X8.997 Y-0.3612 I-0.9114 J0
G2 X8.9516 Y-0.5129 I-0.7629 J0.1455
G2 X8.8764 Y-0.6523 I-0.7176 J0.2972
G2 X8.7671 Y-0.7844 I-0.7538 J0.5123
G2 X8.6349 Y-0.8938 I-0.6444 J0.6444
G2 X8.4956 Y-0.969 I-0.4366 J0.6424
G2 X8.3439 Y-1.0143 I-0.2972 J0.7176
G2 X8.1731 Y-1.0305 I-0.1708 J0.8952
G2 X8.0024 Y-1.0143 I0 J0.9114
G2 X7.8507 Y-0.969 I0.1455 J0.7629
G2 X7.7113 Y-0.8938 I0.2972 J0.7176
G2 X7.5792 Y-0.7844 I0.5123 J0.7538
G2 X7.4698 Y-0.6523 I0.6444 J0.6444
G2 X7.3946 Y-0.5129 I0.6424 J0.4366
G2 X7.3493 Y-0.3612 I0.7176 J0.2972
G2 X7.3331 Y-0.1905 I0.8952 J0.1708
G1 X7.3331 Y0.3095
G3 X7.3204 Y0.4437 I-0.7161 J0
G3 X7.2848 Y0.5629 I-0.5995 J-0.1143
G3 X7.2257 Y0.6724 I-0.5638 J-0.2335
G3 X7.1398 Y0.7762 I-0.5922 J-0.4025
G3 X7.036 Y0.8621 I-0.5063 J-0.5063
G3 X6.9265 Y0.9212 I-0.343 J-0.5047
G3 X6.8073 Y0.9568 I-0.2335 J-0.5638
G3 X6.6731 Y0.9695 I-0.1342 J-0.7034
G3 X6.539 Y0.9568 I0 J-0.7161
G3 X6.4198 Y0.9212 I0.1143 J-0.5995
G3 X6.3103 Y0.8621 I0.2335 J-0.5638
G3 X6.2064 Y0.7762 I0.4025 J-0.5922
G3 X6.1205 Y0.6724 I0.5063 J-0.5063
G3 X6.0615 Y0.5629 I0.5047 J-0.343
G3 X6.0258 Y0.4437 I0.5638 J-0.2335
G3 X6.0131 Y0.3095 I0.7034 J-0.1342
G1 X6.0131 Y-0.1905
G2 X5.997 Y-0.3612 I-0.9114 J0
G2 X5.9516 Y-0.5129 I-0.7629 J0.1455
G2 X5.8764 Y-0.6523 I-0.7176 J0.2972
G2 X5.7671 Y-0.7844 I-0.7538 J0.5123
G2 X5.6349 Y-0.8938 I-0.6444 J0.6444
G2 X5.4956 Y-0.969 I-0.4366 J0.6424
G2 X5.3439 Y-1.0143 I-0.2972 J0.7176
G2 X5.1731 Y-1.0305 I-0.1708 J0.8952
G2 X5.0024 Y-1.0143 I0 J0.9114
G2 X4.8507 Y-0.969 I0.1455 J0.7629
G2 X4.7113 Y-0.8938 I0.2972 J0.7176
G2 X4.5792 Y-0.7844 I0.5123 J0.7538
G2 X4.4698 Y-0.6523 I0.6444 J0.6444
G2 X4.3946 Y-0.5129 I0.6424 J0.4366
G2 X4.3493 Y-0.3612 I0.7176 J0.2972
G2 X4.3331 Y-0.1905 I0.8952 J0.1708
G1 X4.3331 Y0.3095
G3 X4.3204 Y0.4437 I-0.7161 J0
G3 X4.2848 Y0.5629 I-0.5995 J-0.1143
G3 X4.2257 Y0.6724 I-0.5638 J-0.2335
G3 X4.1398 Y0.7762 I-0.5922 J-0.4025
G3 X4.036 Y0.8621 I-0.5063 J-0.5063
G3 X3.9265 Y0.9212 I-0.343 J-0.5047
G3 X3.8073 Y0.9568 I-0.2335 J-0.5638
G3 X3.6731 Y0.9695 I-0.1342 J-0.7034
G3 X3.539 Y0.9568 I0 J-0.7161
G3 X3.4198 Y0.9212 I0.1143 J-0.5995
G3 X3.3103 Y0.8621 I0.2335 J-0.5638
G3 X3.2064 Y0.7762 I0.4025 J-0.5922
G3 X3.1205 Y0.6724 I0.5063 J-0.5063
G3 X3.0615 Y0.5629 I0.5047 J-0.343
G3 X3.0258 Y0.4437 I0.5638 J-0.2335
G3 X3.0131 Y0.3095 I0.7034 J-0.1342
G1 X3.0131 Y-0.1905
G2 X2.997 Y-0.3612 I-0.9114 J0
G2 X2.9516 Y-0.5129 I-0.7629 J0.1455
G2 X2.8764 Y-0.6523 I-0.7176 J0.2972
G2 X2.7671 Y-0.7844 I-0.7538 J0.5123
G2 X2.6349 Y-0.8938 I-0.6444 J0.6444
G2 X2.4956 Y-0.969 I-0.4366 J0.6424
G2 X2.3439 Y-1.0143 I-0.2972 J0.7176
G2 X2.1731 Y-1.0305 I-0.1708 J0.8952
G2 X2.0024 Y-1.0143 I0 J0.9114
G2 X1.8507 Y-0.969 I0.1455 J0.7629
G2 X1.7113 Y-0.8938 I0.2972 J0.7176
G2 X1.5792 Y-0.7844 I0.5123 J0.7538
G2 X1.4698 Y-0.6523 I0.6444 J0.6444
G2 X1.3946 Y-0.5129 I0.6424 J0.4366
G2 X1.3493 Y-0.3612 I0.7176 J0.2972
G2 X1.3331 Y-0.1905 I0.8952 J0.1708
G1 X1.3331 Y0.3095
G3 X1.3204 Y0.4437 I-0.7161 J0
G3 X1.2848 Y0.5629 I-0.5995 J-0.1143
G3 X1.2257 Y0.6724 I-0.5638 J-0.2335
G3 X1.1398 Y0.7762 I-0.5922 J-0.4025
G3 X1.036 Y0.8621 I-0.5063 J-0.5063
G3 X0.9265 Y0.9212 I-0.343 J-0.5047
G3 X0.8073 Y0.9568 I-0.2335 J-0.5638
G3 X0.6731 Y0.9695 I-0.1342 J-0.7034
G3 X0.539 Y0.9568 I0 J-0.7161
G3 X0.4198 Y0.9212 I0.1143 J-0.5995
G3 X0.3103 Y0.8621 I0.2335 J-0.5638
G3 X0.2064 Y0.7762 I0.4025 J-0.5922
G3 X0.1205 Y0.6724 I0.5063 J-0.5063
G3 X0.0615 Y0.5629 I0.5047 J-0.343
G3 X0.0258 Y0.4437 I0.5638 J-0.2335
G3 X0.0131 Y0.3095 I0.7034 J-0.1342
G1 X0.0131 Y0.0595
G0 Z0.125
G0 X12.0131 Y0.0595
G1 Z-0.8 F30
G1 X12.0131 Y-0.1905 F20
G2 X11.997 Y-0.3612 I-0.9114 J0
G2 X11.9516 Y-0.5129 I-0.7629 J0.1455
G2 X11.8764 Y-0.6523 I-0.7176 J0.2972
G2 X11.7671 Y-0.7844 I-0.7538 J0.5123
G2 X11.6349 Y-0.8938 I-0.6444 J0.6444
G2 X11.4956 Y-0.969 I-0.4366 J0.6424
G2 X11.3439 Y-1.0143 I-0.2972 J0.7176
G2 X11.1731 Y-1.0305 I-0.1708 J0.8952
G2 X11.0024 Y-1.0143 I0 J0.9114
G2 X10.8507 Y-0.969 I0.1455 J0.7629
G2 X10.7113 Y-0.8938 I0.2972 J0.7176
G2 X10.5792 Y-0.7844 I0.5123 J0.7538
G2 X10.4698 Y-0.6523 I0.6444 J0.6444
G2 X10.3946 Y-0.5129 I0.6424 J0.4366
G2 X10.3493 Y-0.3612 I0.7176 J0.2972
G2 X10.3331 Y-0.1905 I0.8952 J0.1708
G1 X10.3331 Y0.3095
G3 X10.3204 Y0.4437 I-0.7161 J0
G3 X10.2848 Y0.5629 I-0.5995 J-0.1143
G3 X10.2257 Y0.6724 I-0.5638 J-0.2335
G3 X10.1398 Y0.7762 I-0.5922 J-0.4025
G3 X10.036 Y0.8621 I-0.5063 J-0.5063
G3 X9.9265 Y0.9212 I-0.343 J-0.5047
G3 X9.8073 Y0.9568 I-0.2335 J-0.5638
G3 X9.6731 Y0.9695 I-0.1342 J-0.7034
G3 X9.539 Y0.9568 I0 J-0.7161
G3 X9.4198 Y0.9212 I0.1143 J-0.5995
G3 X9.3103 Y0.8621 I0.2335 J-0.5638
G3 X9.2064 Y0.7762 I0.4025 J-0.5922
G3 X9.1205 Y0.6724 I0.5063 J-0.5063
G3 X9.0615 Y0.5629 I0.5047 J-0.343
G3 X9.0258 Y0.4437 I0.5638 J-0.2335
G3 X9.0131 Y0.3095 I0.7034 J-0.1342
G1 X9.0131 Y-0.1905
G2 X8.997 Y-0.3612 I-0.9114 J0
G2 X8.9516 Y-0.5129 I-0.7629 J0.1455
G2 X8.8764 Y-0.6523 I-0.7176 J0.2972
G2 X8.7671 Y-0.7844 I-0.7538 J0.5123
G2 X8.6349 Y-0.8938 I-0.6444 J0.6444
G2 X8.4956 Y-0.969 I-0.4366 J0.6424
G2 X8.3439 Y-1.0143 I-0.2972 J0.7176
G2 X8.1731 Y-1.0305 I-0.1708 J0.8952
G2 X8.0024 Y-1.0143 I0 J0.9114
G2 X7.8507 Y-0.969 I0.1455 J0.7629
G2 X7.7113 Y-0.8938 I0.2972 J0.7176
G2 X7.5792 Y-0.7844 I0.5123 J0.7538
G2 X7.4698 Y-0.6523 I0.6444 J0.6444
G2 X7.3946 Y-0.5129 I0.6424 J0.4366
G2 X7.3493 Y-0.3612 I0.7176 J0.2972
G2 X7.3331 Y-0.1905 I0.8952 J0.1708
G1 X7.3331 Y0.3095
G3 X7.3204 Y0.4437 I-0.7161 J0
G3 X7.2848 Y0.5629 I-0.5995 J-0.1143
G3 X7.2257 Y0.6724 I-0.5638 J-0.2335
G3 X7.1398 Y0.7762 I-0.5922 J-0.4025
G3 X7.036 Y0.8621 I-0.5063 J-0.5063
G3 X6.9265 Y0.9212 I-0.343 J-0.5047
G3 X6.8073 Y0.9568 I-0.2335 J-0.5638
G3 X6.6731 Y0.9695 I-0.1342 J-0.7034
G3 X6.539 Y0.9568 I0 J-0.7161
G3 X6.4198 Y0.9212 I0.1143 J-0.5995
G3 X6.3103 Y0.8621 I0.2335 J-0.5638
G3 X6.2064 Y0.7762 I0.4025 J-0.5922
G3 X6.1205 Y0.6724 I0.5063 J-0.5063
G3 X6.0615 Y0.5629 I0.5047 J-0.343
G3 X6.0258 Y0.4437 I0.5638 J-0.2335
G3 X6.0131 Y0.3095 I0.7034 J-0.1342
G1 X6.0131 Y-0.1905
G2 X5.997 Y-0.3612 I-0.9114 J0
G2 X5.9516 Y-0.5129 I-0.7629 J0.1455
G2 X5.8764 Y-0.6523 I-0.7176 J0.2972
G2 X5.7671 Y-0.7844 I-0.7538 J0.5123
G2 X5.6349 Y-0.8938 I-0.6444 J0.6444
G2 X5.4956 Y-0.969 I-0.4366 J0.6424
G2 X5.3439 Y-1.0143 I-0.2972 J0.7176
G2 X5.1731 Y-1.0305 I-0.1708 J0.8952
G2 X5.0024 Y-1.0143 I0 J0.9114
G2 X4.8507 Y-0.969 I0.1455 J0.7629
G2 X4.7113 Y-0.8938 I0.2972 J0.7176
G2 X4.5792 Y-0.7844 I0.5123 J0.7538
G2 X4.4698 Y-0.6523 I0.6444 J0.6444
G2 X4.3946 Y-0.5129 I0.6424 J0.4366
G2 X4.3493 Y-0.3612 I0.7176 J0.2972
G2 X4.3331 Y-0.1905 I0.8952 J0.1708
G1 X4.3331 Y0.3095
G3 X4.3204 Y0.4437 I-0.7161 J0
G3 X4.2848 Y0.5629 I-0.5995 J-0.1143
G3 X4.2257 Y0.6724 I-0.5638 J-0.2335
G3 X4.1398 Y0.7762 I-0.5922 J-0.4025
G3 X4.036 Y0.8621 I-0.5063 J-0.5063
G3 X3.9265 Y0.9212 I-0.343 J-0.5047
G3 X3.8073 Y0.9568 I-0.2335 J-0.5638
G3 X3.6731 Y0.9695 I-0.1342 J-0.7034
G3 X3.539 Y0.9568 I0 J-0.7161
G3 X3.4198 Y0.9212 I0.1143 J-0.5995
G3 X3.3103 Y0.8621 I0.2335 J-0.5638
G3 X3.2064 Y0.7762 I0.4025 J-0.5922
G3 X3.1205 Y0.6724 I0.5063 J-0.5063
G3 X3.0615 Y0.5629 I0.5047 J-0.343
G3 X3.0258 Y0.4437 I0.5638 J-0.2335
G3 X3.0131 Y0.3095 I0.7034 J-0.1342
G1 X3.0131 Y-0.1905
G2 X2.997 Y-0.3612 I-0.9114 J0
G2 X2.9516 Y-0.5129 I-0.7629 J0.1455
G2 X2.8764 Y-0.6523 I-0.7176 J0.2972
G2 X2.7671 Y-0.7844 I-0.7538 J0.5123
G2 X2.6349 Y-0.8938 I-0.6444 J0.6444
G2 X2.4956 Y-0.969 I-0.4366 J0.6424
G2 X2.3439 Y-1.0143 I-0.2972 J0.7176
G2 X2.1731 Y-1.0305 I-0.1708 J0.8952
G2 X2.0024 Y-1.0143 I0 J0.9114
G2 X1.8507 Y-0.969 I0.1455 J0.7629
G2 X1.7113 Y-0.8938 I0.2972 J0.7176
G2 X1.5792 Y-0.7844 I0.5123 J0.7538
G2 X1.4698 Y-0.6523 I0.6444 J0.6444
G2 X1.3946 Y-0.5129 I0.6424 J0.4366
G2 X1.3493 Y-0.3612 I0.7176 J0.2972
G2 X1.3331 Y-0.1905 I0.8952 J0.1708
G1 X1.3331 Y0.3095
G3 X1.3204 Y0.4437 I-0.7161 J0
G3 X1.2848 Y0.5629 I-0.5995 J-0.1143
G3 X1.2257 Y0.6724 I-0.5638 J-0.2335
G3 X1.1398 Y0.7762 I-0.5922 J-0.4025
G3 X1.036 Y0.8621 I-0.5063 J-0.5063
G3 X0.9265 Y0.9212 I-0.343 J-0.5047
G3 X0.8073 Y0.9568 I-0.2335 J-0.5638
G3 X0.6731 Y0.9695 I-0.1342 J-0.7034
G3 X0.539 Y0.9568 I0 J-0.7161
G3 X0.4198 Y0.9212 I0.1143 J-0.5995
G3 X0.3103 Y0.8621 I0.2335 J-0.5638
G3 X0.2064 Y0.7762 I0.4025 J-0.5922
G3 X0.1205 Y0.6724 I0.5063 J-0.5063
G3 X0.0615 Y0.5629 I0.5047 J-0.343
G3 X0.0258 Y0.4437 I0.5638 J-0.2335
G3 X0.0131 Y0.3095 I0.7034 J-0.1342
G1 X0.0131 Y0.0595
G0 Z0.125
M5
M30
