(Generated by PartKam Version 0.05)

G20 G90 G40

(Path B)
G0 Z0.125
T0 M6
G17
M3
G0 X0.0418 Y0.0136
G1 Z-0.2 F30
G1 X0.0418 Y0.2636 F20
G2 X0.0579 Y0.4344 I0.9114 J0
G2 X0.1033 Y0.5861 I0.7629 J-0.1455
G2 X0.1785 Y0.7254 I0.7176 J-0.2972
G2 X0.2878 Y0.8576 I0.7538 J-0.5123
G2 X0.4199 Y0.9669 I0.6444 J-0.6444
G2 X0.5593 Y1.0421 I0.4366 J-0.6424
G2 X0.711 Y1.0875 I0.2972 J-0.7176
G2 X0.8818 Y1.1036 I0.1708 J-0.8952
G2 X1.0525 Y1.0875 I0 J-0.9114
G2 X1.2042 Y1.0421 I-0.1455 J-0.7629
G2 X1.3436 Y0.9669 I-0.2972 J-0.7176
G2 X1.4757 Y0.8576 I-0.5123 J-0.7538
G2 X1.5851 Y0.7254 I-0.6444 J-0.6444
G2 X1.6603 Y0.5861 I-0.6424 J-0.4366
G2 X1.7056 Y0.4344 I-0.7176 J-0.2972
G2 X1.7218 Y0.2636 I-0.8952 J-0.1708
G1 X1.7218 Y-0.2364
G3 X1.7344 Y-0.3706 I0.7161 J0
G3 X1.7701 Y-0.4898 I0.5995 J0.1143
G3 X1.8292 Y-0.5992 I0.5638 J0.2335
G3 X1.9151 Y-0.7031 I0.5922 J0.4025
G3 X2.0189 Y-0.789 I0.5063 J0.5063
G3 X2.1284 Y-0.8481 I0.343 J0.5047
G3 X2.2476 Y-0.8837 I0.2335 J0.5638
G3 X2.3818 Y-0.8964 I0.1342 J0.7034
G3 X2.5159 Y-0.8837 I0 J0.7161
G3 X2.6351 Y-0.8481 I-0.1143 J0.5995
G3 X2.7446 Y-0.789 I-0.2335 J0.5638
G3 X2.8485 Y-0.7031 I-0.4025 J0.5922
G3 X2.9344 Y-0.5992 I-0.5063 J0.5063
G3 X2.9934 Y-0.4898 I-0.5047 J0.343
G3 X3.0291 Y-0.3706 I-0.5638 J0.2335
G3 X3.0418 Y-0.2364 I-0.7034 J0.1342
G1 X3.0418 Y0.2636
G2 X3.0579 Y0.4344 I0.9114 J0
G2 X3.1033 Y0.5861 I0.7629 J-0.1455
G2 X3.1785 Y0.7254 I0.7176 J-0.2972
G2 X3.2878 Y0.8576 I0.7538 J-0.5123
G2 X3.4199 Y0.9669 I0.6444 J-0.6444
G2 X3.5593 Y1.0421 I0.4366 J-0.6424
G2 X3.711 Y1.0875 I0.2972 J-0.7176
G2 X3.8818 Y1.1036 I0.1708 J-0.8952
G2 X4.0525 Y1.0875 I0 J-0.9114
G2 X4.2042 Y1.0421 I-0.1455 J-0.7629
G2 X4.3436 Y0.9669 I-0.2972 J-0.7176
G2 X4.4757 Y0.8576 I-0.5123 J-0.7538
G2 X4.5851 Y0.7254 I-0.6444 J-0.6444
G2 X4.6603 Y0.5861 I-0.6424 J-0.4366
G2 X4.7056 Y0.4344 I-0.7176 J-0.2972
G2 X4.7218 Y0.2636 I-0.8952 J-0.1708
G1 X4.7218 Y-0.2364
G3 X4.7344 Y-0.3706 I0.7161 J0
G3 X4.7701 Y-0.4898 I0.5995 J0.1143
G3 X4.8292 Y-0.5992 I0.5638 J0.2335
G3 X4.9151 Y-0.7031 I0.5922 J0.4025
G3 X5.0189 Y-0.789 I0.5063 J0.5063
G3 X5.1284 Y-0.8481 I0.343 J0.5047
G3 X5.2476 Y-0.8837 I0.2335 J0.5638
G3 X5.3818 Y-0.8964 I0.1342 J0.7034
G3 X5.5159 Y-0.8837 I0 J0.7161
G3 X5.6351 Y-0.8481 I-0.1143 J0.5995
G3 X5.7446 Y-0.789 I-0.2335 J0.5638
G3 X5.8485 Y-0.7031 I-0.4025 J0.5922
G3 X5.9344 Y-0.5992 I-0.5063 J0.5063
G3 X5.9934 Y-0.4898 I-0.5047 J0.343
G3 X6.0291 Y-0.3706 I-0.5638 J0.2335
G3 X6.0418 Y-0.2364 I-0.7034 J0.1342
G1 X6.0418 Y0.2636
G2 X6.0579 Y0.4344 I0.9114 J0
G2 X6.1033 Y0.5861 I0.7629 J-0.1455
G2 X6.1785 Y0.7254 I0.7176 J-0.2972
G2 X6.2878 Y0.8576 I0.7538 J-0.5123
G2 X6.4199 Y0.9669 I0.6444 J-0.6444
G2 X6.5593 Y1.0421 I0.4366 J-0.6424
G2 X6.711 Y1.0875 I0.2972 J-0.7176
G2 X6.8818 Y1.1036 I0.1708 J-0.8952
G2 X7.0525 Y1.0875 I0 J-0.9114
G2 X7.2042 Y1.0421 I-0.1455 J-0.7629
G2 X7.3436 Y0.9669 I-0.2972 J-0.7176
G2 X7.4757 Y0.8576 I-0.5123 J-0.7538
G2 X7.5851 Y0.7254 I-0.6444 J-0.6444
G2 X7.6603 Y0.5861 I-0.6424 J-0.4366
G2 X7.7056 Y0.4344 I-0.7176 J-0.2972
G2 X7.7218 Y0.2636 I-0.8952 J-0.1708
G1 X7.7218 Y-0.2364
G3 X7.7344 Y-0.3706 I0.7161 J0
G3 X7.7701 Y-0.4898 I0.5995 J0.1143
G3 X7.8292 Y-0.5992 I0.5638 J0.2335
G3 X7.9151 Y-0.7031 I0.5922 J0.4025
G3 X8.0189 Y-0.789 I0.5063 J0.5063
G3 X8.1284 Y-0.8481 I0.343 J0.5047
G3 X8.2476 Y-0.8837 I0.2335 J0.5638
G3 X8.3818 Y-0.8964 I0.1342 J0.7034
G3 X8.5159 Y-0.8837 I0 J0.7161
G3 X8.6351 Y-0.8481 I-0.1143 J0.5995
G3 X8.7446 Y-0.789 I-0.2335 J0.5638
G3 X8.8485 Y-0.7031 I-0.4025 J0.5922
G3 X8.9344 Y-0.5992 I-0.5063 J0.5063
G3 X8.9934 Y-0.4898 I-0.5047 J0.343
G3 X9.0291 Y-0.3706 I-0.5638 J0.2335
G3 X9.0418 Y-0.2364 I-0.7034 J0.1342
G1 X9.0418 Y0.2636
G2 X9.0579 Y0.4344 I0.9114 J0
G2 X9.1033 Y0.5861 I0.7629 J-0.1455
G2 X9.1785 Y0.7254 I0.7176 J-0.2972
G2 X9.2878 Y0.8576 I0.7538 J-0.5123
G2 X9.4199 Y0.9669 I0.6444 J-0.6444
G2 X9.5593 Y1.0421 I0.4366 J-0.6424
G2 X9.711 Y1.0875 I0.2972 J-0.7176
G2 X9.8818 Y1.1036 I0.1708 J-0.8952
G2 X10.0525 Y1.0875 I0 J-0.9114
G2 X10.2042 Y1.0421 I-0.1455 J-0.7629
G2 X10.3436 Y0.9669 I-0.2972 J-0.7176
G2 X10.4757 Y0.8576 I-0.5123 J-0.7538
G2 X10.5851 Y0.7254 I-0.6444 J-0.6444
G2 X10.6603 Y0.5861 I-0.6424 J-0.4366
G2 X10.7056 Y0.4344 I-0.7176 J-0.2972
G2 X10.7218 Y0.2636 I-0.8952 J-0.1708
G1 X10.7218 Y-0.2364
G3 X10.7344 Y-0.3706 I0.7161 J0
G3 X10.7701 Y-0.4898 I0.5995 J0.1143
G3 X10.8292 Y-0.5992 I0.5638 J0.2335
G3 X10.9151 Y-0.7031 I0.5922 J0.4025
G3 X11.0189 Y-0.789 I0.5063 J0.5063
G3 X11.1284 Y-0.8481 I0.343 J0.5047
G3 X11.2476 Y-0.8837 I0.2335 J0.5638
G3 X11.3818 Y-0.8964 I0.1342 J0.7034
G3 X11.5159 Y-0.8837 I0 J0.7161
G3 X11.6351 Y-0.8481 I-0.1143 J0.5995
G3 X11.7446 Y-0.789 I-0.2335 J0.5638
G3 X11.8485 Y-0.7031 I-0.4025 J0.5922
G3 X11.9344 Y-0.5992 I-0.5063 J0.5063
G3 X11.9934 Y-0.4898 I-0.5047 J0.343
G3 X12.0291 Y-0.3706 I-0.5638 J0.2335
G3 X12.0418 Y-0.2364 I-0.7034 J0.1342
G1 X12.0418 Y0.0136
G0 Z0.125
G0 X0.0418 Y0.0136
G1 Z-0.4 F30
G1 X0.0418 Y0.2636 F20
G2 X0.0579 Y0.4344 I0.9114 J0
G2 X0.1033 Y0.5861 I0.7629 J-0.1455
G2 X0.1785 Y0.7254 I0.7176 J-0.2972
G2 X0.2878 Y0.8576 I0.7538 J-0.5123
G2 X0.4199 Y0.9669 I0.6444 J-0.6444
G2 X0.5593 Y1.0421 I0.4366 J-0.6424
G2 X0.711 Y1.0875 I0.2972 J-0.7176
G2 X0.8818 Y1.1036 I0.1708 J-0.8952
G2 X1.0525 Y1.0875 I0 J-0.9114
G2 X1.2042 Y1.0421 I-0.1455 J-0.7629
G2 X1.3436 Y0.9669 I-0.2972 J-0.7176
G2 X1.4757 Y0.8576 I-0.5123 J-0.7538
G2 X1.5851 Y0.7254 I-0.6444 J-0.6444
G2 X1.6603 Y0.5861 I-0.6424 J-0.4366
G2 X1.7056 Y0.4344 I-0.7176 J-0.2972
G2 X1.7218 Y0.2636 I-0.8952 J-0.1708
G1 X1.7218 Y-0.2364
G3 X1.7344 Y-0.3706 I0.7161 J0
G3 X1.7701 Y-0.4898 I0.5995 J0.1143
G3 X1.8292 Y-0.5992 I0.5638 J0.2335
G3 X1.9151 Y-0.7031 I0.5922 J0.4025
G3 X2.0189 Y-0.789 I0.5063 J0.5063
G3 X2.1284 Y-0.8481 I0.343 J0.5047
G3 X2.2476 Y-0.8837 I0.2335 J0.5638
G3 X2.3818 Y-0.8964 I0.1342 J0.7034
G3 X2.5159 Y-0.8837 I0 J0.7161
G3 X2.6351 Y-0.8481 I-0.1143 J0.5995
G3 X2.7446 Y-0.789 I-0.2335 J0.5638
G3 X2.8485 Y-0.7031 I-0.4025 J0.5922
G3 X2.9344 Y-0.5992 I-0.5063 J0.5063
G3 X2.9934 Y-0.4898 I-0.5047 J0.343
G3 X3.0291 Y-0.3706 I-0.5638 J0.2335
G3 X3.0418 Y-0.2364 I-0.7034 J0.1342
G1 X3.0418 Y0.2636
G2 X3.0579 Y0.4344 I0.9114 J0
G2 X3.1033 Y0.5861 I0.7629 J-0.1455
G2 X3.1785 Y0.7254 I0.7176 J-0.2972
G2 X3.2878 Y0.8576 I0.7538 J-0.5123
G2 X3.4199 Y0.9669 I0.6444 J-0.6444
G2 X3.5593 Y1.0421 I0.4366 J-0.6424
G2 X3.711 Y1.0875 I0.2972 J-0.7176
G2 X3.8818 Y1.1036 I0.1708 J-0.8952
G2 X4.0525 Y1.0875 I0 J-0.9114
G2 X4.2042 Y1.0421 I-0.1455 J-0.7629
G2 X4.3436 Y0.9669 I-0.2972 J-0.7176
G2 X4.4757 Y0.8576 I-0.5123 J-0.7538
G2 X4.5851 Y0.7254 I-0.6444 J-0.6444
G2 X4.6603 Y0.5861 I-0.6424 J-0.4366
G2 X4.7056 Y0.4344 I-0.7176 J-0.2972
G2 X4.7218 Y0.2636 I-0.8952 J-0.1708
G1 X4.7218 Y-0.2364
G3 X4.7344 Y-0.3706 I0.7161 J0
G3 X4.7701 Y-0.4898 I0.5995 J0.1143
G3 X4.8292 Y-0.5992 I0.5638 J0.2335
G3 X4.9151 Y-0.7031 I0.5922 J0.4025
G3 X5.0189 Y-0.789 I0.5063 J0.5063
G3 X5.1284 Y-0.8481 I0.343 J0.5047
G3 X5.2476 Y-0.8837 I0.2335 J0.5638
G3 X5.3818 Y-0.8964 I0.1342 J0.7034
G3 X5.5159 Y-0.8837 I0 J0.7161
G3 X5.6351 Y-0.8481 I-0.1143 J0.5995
G3 X5.7446 Y-0.789 I-0.2335 J0.5638
G3 X5.8485 Y-0.7031 I-0.4025 J0.5922
G3 X5.9344 Y-0.5992 I-0.5063 J0.5063
G3 X5.9934 Y-0.4898 I-0.5047 J0.343
G3 X6.0291 Y-0.3706 I-0.5638 J0.2335
G3 X6.0418 Y-0.2364 I-0.7034 J0.1342
G1 X6.0418 Y0.2636
G2 X6.0579 Y0.4344 I0.9114 J0
G2 X6.1033 Y0.5861 I0.7629 J-0.1455
G2 X6.1785 Y0.7254 I0.7176 J-0.2972
G2 X6.2878 Y0.8576 I0.7538 J-0.5123
G2 X6.4199 Y0.9669 I0.6444 J-0.6444
G2 X6.5593 Y1.0421 I0.4366 J-0.6424
G2 X6.711 Y1.0875 I0.2972 J-0.7176
G2 X6.8818 Y1.1036 I0.1708 J-0.8952
G2 X7.0525 Y1.0875 I0 J-0.9114
G2 X7.2042 Y1.0421 I-0.1455 J-0.7629
G2 X7.3436 Y0.9669 I-0.2972 J-0.7176
G2 X7.4757 Y0.8576 I-0.5123 J-0.7538
G2 X7.5851 Y0.7254 I-0.6444 J-0.6444
G2 X7.6603 Y0.5861 I-0.6424 J-0.4366
G2 X7.7056 Y0.4344 I-0.7176 J-0.2972
G2 X7.7218 Y0.2636 I-0.8952 J-0.1708
G1 X7.7218 Y-0.2364
G3 X7.7344 Y-0.3706 I0.7161 J0
G3 X7.7701 Y-0.4898 I0.5995 J0.1143
G3 X7.8292 Y-0.5992 I0.5638 J0.2335
G3 X7.9151 Y-0.7031 I0.5922 J0.4025
G3 X8.0189 Y-0.789 I0.5063 J0.5063
G3 X8.1284 Y-0.8481 I0.343 J0.5047
G3 X8.2476 Y-0.8837 I0.2335 J0.5638
G3 X8.3818 Y-0.8964 I0.1342 J0.7034
G3 X8.5159 Y-0.8837 I0 J0.7161
G3 X8.6351 Y-0.8481 I-0.1143 J0.5995
G3 X8.7446 Y-0.789 I-0.2335 J0.5638
G3 X8.8485 Y-0.7031 I-0.4025 J0.5922
G3 X8.9344 Y-0.5992 I-0.5063 J0.5063
G3 X8.9934 Y-0.4898 I-0.5047 J0.343
G3 X9.0291 Y-0.3706 I-0.5638 J0.2335
G3 X9.0418 Y-0.2364 I-0.7034 J0.1342
G1 X9.0418 Y0.2636
G2 X9.0579 Y0.4344 I0.9114 J0
G2 X9.1033 Y0.5861 I0.7629 J-0.1455
G2 X9.1785 Y0.7254 I0.7176 J-0.2972
G2 X9.2878 Y0.8576 I0.7538 J-0.5123
G2 X9.4199 Y0.9669 I0.6444 J-0.6444
G2 X9.5593 Y1.0421 I0.4366 J-0.6424
G2 X9.711 Y1.0875 I0.2972 J-0.7176
G2 X9.8818 Y1.1036 I0.1708 J-0.8952
G2 X10.0525 Y1.0875 I0 J-0.9114
G2 X10.2042 Y1.0421 I-0.1455 J-0.7629
G2 X10.3436 Y0.9669 I-0.2972 J-0.7176
G2 X10.4757 Y0.8576 I-0.5123 J-0.7538
G2 X10.5851 Y0.7254 I-0.6444 J-0.6444
G2 X10.6603 Y0.5861 I-0.6424 J-0.4366
G2 X10.7056 Y0.4344 I-0.7176 J-0.2972
G2 X10.7218 Y0.2636 I-0.8952 J-0.1708
G1 X10.7218 Y-0.2364
G3 X10.7344 Y-0.3706 I0.7161 J0
G3 X10.7701 Y-0.4898 I0.5995 J0.1143
G3 X10.8292 Y-0.5992 I0.5638 J0.2335
G3 X10.9151 Y-0.7031 I0.5922 J0.4025
G3 X11.0189 Y-0.789 I0.5063 J0.5063
G3 X11.1284 Y-0.8481 I0.343 J0.5047
G3 X11.2476 Y-0.8837 I0.2335 J0.5638
G3 X11.3818 Y-0.8964 I0.1342 J0.7034
G3 X11.5159 Y-0.8837 I0 J0.7161
G3 X11.6351 Y-0.8481 I-0.1143 J0.5995
G3 X11.7446 Y-0.789 I-0.2335 J0.5638
G3 X11.8485 Y-0.7031 I-0.4025 J0.5922
G3 X11.9344 Y-0.5992 I-0.5063 J0.5063
G3 X11.9934 Y-0.4898 I-0.5047 J0.343
G3 X12.0291 Y-0.3706 I-0.5638 J0.2335
G3 X12.0418 Y-0.2364 I-0.7034 J0.1342
G1 X12.0418 Y0.0136
G0 Z0.125
G0 X0.0418 Y0.0136
G1 Z-0.6 F30
G1 X0.0418 Y0.2636 F20
G2 X0.0579 Y0.4344 I0.9114 J0
G2 X0.1033 Y0.5861 I0.7629 J-0.1455
G2 X0.1785 Y0.7254 I0.7176 J-0.2972
G2 X0.2878 Y0.8576 I0.7538 J-0.5123
G2 X0.4199 Y0.9669 I0.6444 J-0.6444
G2 X0.5593 Y1.0421 I0.4366 J-0.6424
G2 X0.711 Y1.0875 I0.2972 J-0.7176
G2 X0.8818 Y1.1036 I0.1708 J-0.8952
G2 X1.0525 Y1.0875 I0 J-0.9114
G2 X1.2042 Y1.0421 I-0.1455 J-0.7629
G2 X1.3436 Y0.9669 I-0.2972 J-0.7176
G2 X1.4757 Y0.8576 I-0.5123 J-0.7538
G2 X1.5851 Y0.7254 I-0.6444 J-0.6444
G2 X1.6603 Y0.5861 I-0.6424 J-0.4366
G2 X1.7056 Y0.4344 I-0.7176 J-0.2972
G2 X1.7218 Y0.2636 I-0.8952 J-0.1708
G1 X1.7218 Y-0.2364
G3 X1.7344 Y-0.3706 I0.7161 J0
G3 X1.7701 Y-0.4898 I0.5995 J0.1143
G3 X1.8292 Y-0.5992 I0.5638 J0.2335
G3 X1.9151 Y-0.7031 I0.5922 J0.4025
G3 X2.0189 Y-0.789 I0.5063 J0.5063
G3 X2.1284 Y-0.8481 I0.343 J0.5047
G3 X2.2476 Y-0.8837 I0.2335 J0.5638
G3 X2.3818 Y-0.8964 I0.1342 J0.7034
G3 X2.5159 Y-0.8837 I0 J0.7161
G3 X2.6351 Y-0.8481 I-0.1143 J0.5995
G3 X2.7446 Y-0.789 I-0.2335 J0.5638
G3 X2.8485 Y-0.7031 I-0.4025 J0.5922
G3 X2.9344 Y-0.5992 I-0.5063 J0.5063
G3 X2.9934 Y-0.4898 I-0.5047 J0.343
G3 X3.0291 Y-0.3706 I-0.5638 J0.2335
G3 X3.0418 Y-0.2364 I-0.7034 J0.1342
G1 X3.0418 Y0.2636
G2 X3.0579 Y0.4344 I0.9114 J0
G2 X3.1033 Y0.5861 I0.7629 J-0.1455
G2 X3.1785 Y0.7254 I0.7176 J-0.2972
G2 X3.2878 Y0.8576 I0.7538 J-0.5123
G2 X3.4199 Y0.9669 I0.6444 J-0.6444
G2 X3.5593 Y1.0421 I0.4366 J-0.6424
G2 X3.711 Y1.0875 I0.2972 J-0.7176
G2 X3.8818 Y1.1036 I0.1708 J-0.8952
G2 X4.0525 Y1.0875 I0 J-0.9114
G2 X4.2042 Y1.0421 I-0.1455 J-0.7629
G2 X4.3436 Y0.9669 I-0.2972 J-0.7176
G2 X4.4757 Y0.8576 I-0.5123 J-0.7538
G2 X4.5851 Y0.7254 I-0.6444 J-0.6444
G2 X4.6603 Y0.5861 I-0.6424 J-0.4366
G2 X4.7056 Y0.4344 I-0.7176 J-0.2972
G2 X4.7218 Y0.2636 I-0.8952 J-0.1708
G1 X4.7218 Y-0.2364
G3 X4.7344 Y-0.3706 I0.7161 J0
G3 X4.7701 Y-0.4898 I0.5995 J0.1143
G3 X4.8292 Y-0.5992 I0.5638 J0.2335
G3 X4.9151 Y-0.7031 I0.5922 J0.4025
G3 X5.0189 Y-0.789 I0.5063 J0.5063
G3 X5.1284 Y-0.8481 I0.343 J0.5047
G3 X5.2476 Y-0.8837 I0.2335 J0.5638
G3 X5.3818 Y-0.8964 I0.1342 J0.7034
G3 X5.5159 Y-0.8837 I0 J0.7161
G3 X5.6351 Y-0.8481 I-0.1143 J0.5995
G3 X5.7446 Y-0.789 I-0.2335 J0.5638
G3 X5.8485 Y-0.7031 I-0.4025 J0.5922
G3 X5.9344 Y-0.5992 I-0.5063 J0.5063
G3 X5.9934 Y-0.4898 I-0.5047 J0.343
G3 X6.0291 Y-0.3706 I-0.5638 J0.2335
G3 X6.0418 Y-0.2364 I-0.7034 J0.1342
G1 X6.0418 Y0.2636
G2 X6.0579 Y0.4344 I0.9114 J0
G2 X6.1033 Y0.5861 I0.7629 J-0.1455
G2 X6.1785 Y0.7254 I0.7176 J-0.2972
G2 X6.2878 Y0.8576 I0.7538 J-0.5123
G2 X6.4199 Y0.9669 I0.6444 J-0.6444
G2 X6.5593 Y1.0421 I0.4366 J-0.6424
G2 X6.711 Y1.0875 I0.2972 J-0.7176
G2 X6.8818 Y1.1036 I0.1708 J-0.8952
G2 X7.0525 Y1.0875 I0 J-0.9114
G2 X7.2042 Y1.0421 I-0.1455 J-0.7629
G2 X7.3436 Y0.9669 I-0.2972 J-0.7176
G2 X7.4757 Y0.8576 I-0.5123 J-0.7538
G2 X7.5851 Y0.7254 I-0.6444 J-0.6444
G2 X7.6603 Y0.5861 I-0.6424 J-0.4366
G2 X7.7056 Y0.4344 I-0.7176 J-0.2972
G2 X7.7218 Y0.2636 I-0.8952 J-0.1708
G1 X7.7218 Y-0.2364
G3 X7.7344 Y-0.3706 I0.7161 J0
G3 X7.7701 Y-0.4898 I0.5995 J0.1143
G3 X7.8292 Y-0.5992 I0.5638 J0.2335
G3 X7.9151 Y-0.7031 I0.5922 J0.4025
G3 X8.0189 Y-0.789 I0.5063 J0.5063
G3 X8.1284 Y-0.8481 I0.343 J0.5047
G3 X8.2476 Y-0.8837 I0.2335 J0.5638
G3 X8.3818 Y-0.8964 I0.1342 J0.7034
G3 X8.5159 Y-0.8837 I0 J0.7161
G3 X8.6351 Y-0.8481 I-0.1143 J0.5995
G3 X8.7446 Y-0.789 I-0.2335 J0.5638
G3 X8.8485 Y-0.7031 I-0.4025 J0.5922
G3 X8.9344 Y-0.5992 I-0.5063 J0.5063
G3 X8.9934 Y-0.4898 I-0.5047 J0.343
G3 X9.0291 Y-0.3706 I-0.5638 J0.2335
G3 X9.0418 Y-0.2364 I-0.7034 J0.1342
G1 X9.0418 Y0.2636
G2 X9.0579 Y0.4344 I0.9114 J0
G2 X9.1033 Y0.5861 I0.7629 J-0.1455
G2 X9.1785 Y0.7254 I0.7176 J-0.2972
G2 X9.2878 Y0.8576 I0.7538 J-0.5123
G2 X9.4199 Y0.9669 I0.6444 J-0.6444
G2 X9.5593 Y1.0421 I0.4366 J-0.6424
G2 X9.711 Y1.0875 I0.2972 J-0.7176
G2 X9.8818 Y1.1036 I0.1708 J-0.8952
G2 X10.0525 Y1.0875 I0 J-0.9114
G2 X10.2042 Y1.0421 I-0.1455 J-0.7629
G2 X10.3436 Y0.9669 I-0.2972 J-0.7176
G2 X10.4757 Y0.8576 I-0.5123 J-0.7538
G2 X10.5851 Y0.7254 I-0.6444 J-0.6444
G2 X10.6603 Y0.5861 I-0.6424 J-0.4366
G2 X10.7056 Y0.4344 I-0.7176 J-0.2972
G2 X10.7218 Y0.2636 I-0.8952 J-0.1708
G1 X10.7218 Y-0.2364
G3 X10.7344 Y-0.3706 I0.7161 J0
G3 X10.7701 Y-0.4898 I0.5995 J0.1143
G3 X10.8292 Y-0.5992 I0.5638 J0.2335
G3 X10.9151 Y-0.7031 I0.5922 J0.4025
G3 X11.0189 Y-0.789 I0.5063 J0.5063
G3 X11.1284 Y-0.8481 I0.343 J0.5047
G3 X11.2476 Y-0.8837 I0.2335 J0.5638
G3 X11.3818 Y-0.8964 I0.1342 J0.7034
G3 X11.5159 Y-0.8837 I0 J0.7161
G3 X11.6351 Y-0.8481 I-0.1143 J0.5995
G3 X11.7446 Y-0.789 I-0.2335 J0.5638
G3 X11.8485 Y-0.7031 I-0.4025 J0.5922
G3 X11.9344 Y-0.5992 I-0.5063 J0.5063
G3 X11.9934 Y-0.4898 I-0.5047 J0.343
G3 X12.0291 Y-0.3706 I-0.5638 J0.2335
G3 X12.0418 Y-0.2364 I-0.7034 J0.1342
G1 X12.0418 Y0.0136
G0 Z0.125
G0 X0.0418 Y0.0136
G1 Z-0.8 F30
G1 X0.0418 Y0.2636 F20
G2 X0.0579 Y0.4344 I0.9114 J0
G2 X0.1033 Y0.5861 I0.7629 J-0.1455
G2 X0.1785 Y0.7254 I0.7176 J-0.2972
G2 X0.2878 Y0.8576 I0.7538 J-0.5123
G2 X0.4199 Y0.9669 I0.6444 J-0.6444
G2 X0.5593 Y1.0421 I0.4366 J-0.6424
G2 X0.711 Y1.0875 I0.2972 J-0.7176
G2 X0.8818 Y1.1036 I0.1708 J-0.8952
G2 X1.0525 Y1.0875 I0 J-0.9114
G2 X1.2042 Y1.0421 I-0.1455 J-0.7629
G2 X1.3436 Y0.9669 I-0.2972 J-0.7176
G2 X1.4757 Y0.8576 I-0.5123 J-0.7538
G2 X1.5851 Y0.7254 I-0.6444 J-0.6444
G2 X1.6603 Y0.5861 I-0.6424 J-0.4366
G2 X1.7056 Y0.4344 I-0.7176 J-0.2972
G2 X1.7218 Y0.2636 I-0.8952 J-0.1708
G1 X1.7218 Y-0.2364
G3 X1.7344 Y-0.3706 I0.7161 J0
G3 X1.7701 Y-0.4898 I0.5995 J0.1143
G3 X1.8292 Y-0.5992 I0.5638 J0.2335
G3 X1.9151 Y-0.7031 I0.5922 J0.4025
G3 X2.0189 Y-0.789 I0.5063 J0.5063
G3 X2.1284 Y-0.8481 I0.343 J0.5047
G3 X2.2476 Y-0.8837 I0.2335 J0.5638
G3 X2.3818 Y-0.8964 I0.1342 J0.7034
G3 X2.5159 Y-0.8837 I0 J0.7161
G3 X2.6351 Y-0.8481 I-0.1143 J0.5995
G3 X2.7446 Y-0.789 I-0.2335 J0.5638
G3 X2.8485 Y-0.7031 I-0.4025 J0.5922
G3 X2.9344 Y-0.5992 I-0.5063 J0.5063
G3 X2.9934 Y-0.4898 I-0.5047 J0.343
G3 X3.0291 Y-0.3706 I-0.5638 J0.2335
G3 X3.0418 Y-0.2364 I-0.7034 J0.1342
G1 X3.0418 Y0.2636
G2 X3.0579 Y0.4344 I0.9114 J0
G2 X3.1033 Y0.5861 I0.7629 J-0.1455
G2 X3.1785 Y0.7254 I0.7176 J-0.2972
G2 X3.2878 Y0.8576 I0.7538 J-0.5123
G2 X3.4199 Y0.9669 I0.6444 J-0.6444
G2 X3.5593 Y1.0421 I0.4366 J-0.6424
G2 X3.711 Y1.0875 I0.2972 J-0.7176
G2 X3.8818 Y1.1036 I0.1708 J-0.8952
G2 X4.0525 Y1.0875 I0 J-0.9114
G2 X4.2042 Y1.0421 I-0.1455 J-0.7629
G2 X4.3436 Y0.9669 I-0.2972 J-0.7176
G2 X4.4757 Y0.8576 I-0.5123 J-0.7538
G2 X4.5851 Y0.7254 I-0.6444 J-0.6444
G2 X4.6603 Y0.5861 I-0.6424 J-0.4366
G2 X4.7056 Y0.4344 I-0.7176 J-0.2972
G2 X4.7218 Y0.2636 I-0.8952 J-0.1708
G1 X4.7218 Y-0.2364
G3 X4.7344 Y-0.3706 I0.7161 J0
G3 X4.7701 Y-0.4898 I0.5995 J0.1143
G3 X4.8292 Y-0.5992 I0.5638 J0.2335
G3 X4.9151 Y-0.7031 I0.5922 J0.4025
G3 X5.0189 Y-0.789 I0.5063 J0.5063
G3 X5.1284 Y-0.8481 I0.343 J0.5047
G3 X5.2476 Y-0.8837 I0.2335 J0.5638
G3 X5.3818 Y-0.8964 I0.1342 J0.7034
G3 X5.5159 Y-0.8837 I0 J0.7161
G3 X5.6351 Y-0.8481 I-0.1143 J0.5995
G3 X5.7446 Y-0.789 I-0.2335 J0.5638
G3 X5.8485 Y-0.7031 I-0.4025 J0.5922
G3 X5.9344 Y-0.5992 I-0.5063 J0.5063
G3 X5.9934 Y-0.4898 I-0.5047 J0.343
G3 X6.0291 Y-0.3706 I-0.5638 J0.2335
G3 X6.0418 Y-0.2364 I-0.7034 J0.1342
G1 X6.0418 Y0.2636
G2 X6.0579 Y0.4344 I0.9114 J0
G2 X6.1033 Y0.5861 I0.7629 J-0.1455
G2 X6.1785 Y0.7254 I0.7176 J-0.2972
G2 X6.2878 Y0.8576 I0.7538 J-0.5123
G2 X6.4199 Y0.9669 I0.6444 J-0.6444
G2 X6.5593 Y1.0421 I0.4366 J-0.6424
G2 X6.711 Y1.0875 I0.2972 J-0.7176
G2 X6.8818 Y1.1036 I0.1708 J-0.8952
G2 X7.0525 Y1.0875 I0 J-0.9114
G2 X7.2042 Y1.0421 I-0.1455 J-0.7629
G2 X7.3436 Y0.9669 I-0.2972 J-0.7176
G2 X7.4757 Y0.8576 I-0.5123 J-0.7538
G2 X7.5851 Y0.7254 I-0.6444 J-0.6444
G2 X7.6603 Y0.5861 I-0.6424 J-0.4366
G2 X7.7056 Y0.4344 I-0.7176 J-0.2972
G2 X7.7218 Y0.2636 I-0.8952 J-0.1708
G1 X7.7218 Y-0.2364
G3 X7.7344 Y-0.3706 I0.7161 J0
G3 X7.7701 Y-0.4898 I0.5995 J0.1143
G3 X7.8292 Y-0.5992 I0.5638 J0.2335
G3 X7.9151 Y-0.7031 I0.5922 J0.4025
G3 X8.0189 Y-0.789 I0.5063 J0.5063
G3 X8.1284 Y-0.8481 I0.343 J0.5047
G3 X8.2476 Y-0.8837 I0.2335 J0.5638
G3 X8.3818 Y-0.8964 I0.1342 J0.7034
G3 X8.5159 Y-0.8837 I0 J0.7161
G3 X8.6351 Y-0.8481 I-0.1143 J0.5995
G3 X8.7446 Y-0.789 I-0.2335 J0.5638
G3 X8.8485 Y-0.7031 I-0.4025 J0.5922
G3 X8.9344 Y-0.5992 I-0.5063 J0.5063
G3 X8.9934 Y-0.4898 I-0.5047 J0.343
G3 X9.0291 Y-0.3706 I-0.5638 J0.2335
G3 X9.0418 Y-0.2364 I-0.7034 J0.1342
G1 X9.0418 Y0.2636
G2 X9.0579 Y0.4344 I0.9114 J0
G2 X9.1033 Y0.5861 I0.7629 J-0.1455
G2 X9.1785 Y0.7254 I0.7176 J-0.2972
G2 X9.2878 Y0.8576 I0.7538 J-0.5123
G2 X9.4199 Y0.9669 I0.6444 J-0.6444
G2 X9.5593 Y1.0421 I0.4366 J-0.6424
G2 X9.711 Y1.0875 I0.2972 J-0.7176
G2 X9.8818 Y1.1036 I0.1708 J-0.8952
G2 X10.0525 Y1.0875 I0 J-0.9114
G2 X10.2042 Y1.0421 I-0.1455 J-0.7629
G2 X10.3436 Y0.9669 I-0.2972 J-0.7176
G2 X10.4757 Y0.8576 I-0.5123 J-0.7538
G2 X10.5851 Y0.7254 I-0.6444 J-0.6444
G2 X10.6603 Y0.5861 I-0.6424 J-0.4366
G2 X10.7056 Y0.4344 I-0.7176 J-0.2972
G2 X10.7218 Y0.2636 I-0.8952 J-0.1708
G1 X10.7218 Y-0.2364
G3 X10.7344 Y-0.3706 I0.7161 J0
G3 X10.7701 Y-0.4898 I0.5995 J0.1143
G3 X10.8292 Y-0.5992 I0.5638 J0.2335
G3 X10.9151 Y-0.7031 I0.5922 J0.4025
G3 X11.0189 Y-0.789 I0.5063 J0.5063
G3 X11.1284 Y-0.8481 I0.343 J0.5047
G3 X11.2476 Y-0.8837 I0.2335 J0.5638
G3 X11.3818 Y-0.8964 I0.1342 J0.7034
G3 X11.5159 Y-0.8837 I0 J0.7161
G3 X11.6351 Y-0.8481 I-0.1143 J0.5995
G3 X11.7446 Y-0.789 I-0.2335 J0.5638
G3 X11.8485 Y-0.7031 I-0.4025 J0.5922
G3 X11.9344 Y-0.5992 I-0.5063 J0.5063
G3 X11.9934 Y-0.4898 I-0.5047 J0.343
G3 X12.0291 Y-0.3706 I-0.5638 J0.2335
G3 X12.0418 Y-0.2364 I-0.7034 J0.1342
G1 X12.0418 Y0.0136
G0 Z0.125
M5
M30
